X:1
T:Jingle Bells
C:James Lord Pierpont
M:4/4
L:1/4
Q:1/4=120
K:G
G3 G | G3 G | G G E G | A2 B2 | c3 c | c3 c | c G G G | A A A2 | B3 B | B3 B | B G G G | A c2 d | e4 |]
w: Jin-gle bells jin-gle bells | jin-gle all the way | oh what fun it is to ride | in a one-horse o-pen sleigh | jin-gle bells jin-gle bells | jin-gle all the way | oh what fun it is to ride | in a one-horse o-pen sleigh | hey |]
